assets/icons/email-open-24.svg

<svg width="24" height="24" viewBox="0 0 24 24" fill="none" xmlns="http://www.w3.org/2000/svg">
<path fill-rule="evenodd" clip-rule="evenodd" d="M13.3595 4.54464C12.5926 3.83056 11.4074 3.83056 10.6405 4.54464L4.62825 10.1422L10.9224 14.186C11.5794 14.6081 12.4206 14.6081 13.0776 14.186L19.3717 10.1422L13.3595 4.54464ZM20 12.1234L14.1552 15.8786C12.8413 16.7227 11.1587 16.7227 9.84482 15.8786L4 12.1234V17.9818C4 19.0914 4.89543 19.9909 6 19.9909H18C19.1046 19.9909 20 19.0914 20 17.9818V12.1234ZM9.28094 3.07112C10.8149 1.64296 13.1851 1.64296 14.7191 3.07112L21.6798 9.55179C21.8839 9.74189 22 10.0089 22 10.2885V17.9818C22 20.201 20.2091 22 18 22H6C3.79086 22 2 20.201 2 17.9818V10.2885C2 10.0089 2.11605 9.74189 2.32024 9.55179L9.28094 3.07112Z" fill="#F2F2F2"/>
</svg>

<svg xmlns="http://www.w3.org/2000/svg" width="24" height="24" viewBox="0 0 24 24"><path fill-rule="evenodd" d="M13.36 4.545a1.993 1.993 0 00-2.72 0l-6.012 5.597 6.294 4.044a1.992 1.992 0 002.156 0l6.294-4.044-6.012-5.597zM20 12.123l-5.845 3.756a3.985 3.985 0 01-4.31 0L4 12.123v5.859c0 1.11.895 2.009 2 2.009h12c1.105 0 2-.9 2-2.01v-5.858zM9.28 3.071a3.987 3.987 0 015.44 0l6.96 6.48c.204.19.32.458.32.738v7.693C22 20.2 20.21 22 18 22H6c-2.21 0-4-1.799-4-4.018v-7.693c0-.28.116-.547.32-.737l6.96-6.48z"/></svg>
